X: 13457
T: Flop-Eared Mule, The
R: polka
M: 2/4
K: Dmajor
|:ff dd|A/B/A/F/ DD|EE/F/ G/F/E|D/E/F/G/ AA|
ff dd|A/B/A/F/ DD|EE/F/ G/F/E|D>F DD:|
|:e/f/e/c/ e/f/e/c/|e/f/e/c/ AA|BB/c/ d/c/B|A/B/c/d/ ee:|
e/f/e/c/ e/f/e/c/|e/f/e/c/ AA|BB/c/ d/c/B|Ac AA:|

